public/logos/pumb.svg

<svg width="492" height="492" viewBox="0 0 492 492" xmlns="http://www.w3.org/2000/svg">
    <g id="Group">
        <path id="Path" fill="#E60C2A" stroke="none" d="M 0 246 L 0 492 L 492 492 L 492 0 L 0 0 Z M 412.700012 181.5 C 417.700012 184.599976 422.099976 187.400024 422.400024 187.900024 C 422.700012 188.299988 421.700012 190.700012 420.099976 193.200012 C 416.700012 198.599976 408.900024 203.900024 398.299988 208.099976 C 386.200012 212.900024 377.099976 218 374.400024 221.5 C 373.099976 223.299988 372 224.900024 372 225.200012 C 372 225.5 374.5 224.400024 377.5 222.900024 C 397 213.099976 421.099976 223.799988 427.400024 245 C 431.299988 258.100006 427.299988 273.799988 417.5 283.5 C 409.599976 291.5 399.700012 295.200012 386.599976 295.099976 C 365.700012 295.099976 349 283 343.5 263.799988 C 341.099976 255.799988 341.099976 240.100006 343.299988 231.299988 C 348.099976 212.900024 357.900024 202.400024 381 191.099976 C 388.900024 187.200012 393.799988 184.099976 397 180.900024 C 399.5 178.400024 401.900024 176.200012 402.5 176.200012 C 403 176.099976 407.599976 178.5 412.700012 181.5 M 149.799988 249.700012 L 149.5 291.5 L 125.5 291.5 L 125.200012 261.200012 L 125 231 L 96 231 L 95.799988 261.200012 L 95.5 291.5 L 71.5 291.5 L 71.200012 249.700012 L 71 208 L 150 208 Z M 190.399994 229.700012 C 196.399994 241.700012 201.5 250.899994 201.700012 250.299988 C 202 249.600006 205 239.899994 208.399994 228.799988 L 214.700012 208.5 L 227.799988 208.200012 C 235.100006 208.099976 241 208.200012 241 208.599976 C 241 209.599976 214.399994 282.900024 212.100006 288.299988 C 207.5 299 199.799988 307.5 190.5 312 C 184.100006 315.200012 170.399994 317.799988 168.899994 316.299988 C 168.299988 315.700012 168.100006 310.200012 168.200012 303.900024 C 168.5 292.5 168.5 292.5 173.899994 291.799988 C 181.299988 290.700012 185.399994 288.5 187.600006 284.400024 C 189.5 281 189.5 281 171.200012 244.5 L 153 208 L 179.5 208 Z M 279.5 224.200012 L 289.5 239.899994 L 293.400024 233.700012 C 311.200012 205.799988 308.700012 208 322 208 L 334 208 L 333.799988 249.700012 L 333.5 291.5 L 310.5 291.5 L 310.200012 269.599976 L 310 247.700012 L 300.900024 261.100006 C 295.900024 268.5 291.200012 275.099976 290.5 275.799988 C 289.5 277 287.5 274.700012 279.400024 262.899994 L 269.5 248.600006 L 269 270.099976 L 268.5 291.5 L 245.5 291.5 L 245.200012 249.700012 L 245 207.900024 L 257.200012 208.200012 C 269.400024 208.5 269.400024 208.5 279.5 224.200012"/>
        <path id="path1" fill="#bf0000" stroke="none" d="M 375.599976 241.299988 C 366.099976 246.600006 364.900024 260 373.200012 267.700012 C 378.400024 272.599976 388.700012 273.5 395.5 269.700012 C 400 267.200012 404 260.5 404 255.5 C 404 250.100006 400 243.799988 395 241.200012 C 389 238.200012 380.900024 238.200012 375.599976 241.299988"/>
    </g>
</svg>

<svg width="100%" height="100%" viewBox="0 0 500 500" xmlns="http://www.w3.org/2000/svg">
    <path id="background" fill="#e60c2a"
        d="M500,50l0,400c0,27.596 -22.404,50 -50,50l-400,0c-27.596,0 -50,-22.404 -50,-50l0,-400c0,-27.596 22.404,-50 50,-50l400,0c27.596,0 50,22.404 50,50Z" />
    <g id="letters" fill="#fff">
        <path
            d="M149.8,249.7l-0.3,41.8l-24,0l-0.3,-30.3l-0.2,-30.2l-29,0l-0.2,30.2l-0.3,30.3l-24,0l-0.3,-41.8l-0.2,-41.7l79,0l-0.2,41.7Z" />
        <path
            d="M190.4,229.7c6,12 11.1,21.2 11.3,20.6c0.3,-0.7 3.3,-10.4 6.7,-21.5l6.3,-20.3l13.1,-0.3c7.3,-0.1 13.2,0 13.2,0.4c0,1 -26.6,74.3 -28.9,79.7c-4.6,10.7 -12.3,19.2 -21.6,23.7c-6.4,3.2 -20.1,5.8 -21.6,4.3c-0.6,-0.6 -0.8,-6.1 -0.7,-12.4c0.3,-11.4 0.3,-11.4 5.7,-12.1c7.4,-1.1 11.5,-3.3 13.7,-7.4c1.9,-3.4 1.9,-3.4 -16.4,-39.9l-18.2,-36.5l26.5,-0l10.9,21.7Z" />
        <path
            d="M279.5,224.2l10,15.7l3.9,-6.2c17.8,-27.9 15.3,-25.7 28.6,-25.7l12,-0l-0.2,41.7l-0.3,41.8l-23,-0l-0.3,-21.9l-0.2,-21.9l-9.1,13.4c-5,7.4 -9.7,14 -10.4,14.7c-1,1.2 -3,-1.1 -11.1,-12.9l-9.9,-14.3l-0.5,21.5l-0.5,21.4l-23,-0l-0.3,-41.8l-0.2,-41.8l12.2,0.3c12.2,0.3 12.2,0.3 22.3,16" />
        <path
            d="M412.7,181.5c5,3.1 9.4,5.9 9.7,6.4c0.3,0.4 -0.7,2.8 -2.3,5.3c-3.4,5.4 -11.2,10.7 -21.8,14.9c-12.1,4.8 -21.2,9.9 -23.9,13.4c-1.3,1.8 -2.4,3.4 -2.4,3.7c0,0.3 2.5,-0.8 5.5,-2.3c19.5,-9.8 43.6,0.9 49.9,22.1c3.9,13.1 -0.1,28.8 -9.9,38.5c-7.9,8 -17.8,11.7 -30.9,11.6c-20.9,-0 -37.6,-12.1 -43.1,-31.3c-2.4,-8 -2.4,-23.7 -0.2,-32.5c4.8,-18.4 14.6,-28.9 37.7,-40.2c7.9,-3.9 12.8,-7 16,-10.2c2.5,-2.5 4.9,-4.7 5.5,-4.7c0.5,-0.1 5.1,2.3 10.2,5.3Zm-37.1,59.8c-9.5,5.3 -10.7,18.7 -2.4,26.4c5.2,4.9 15.5,5.8 22.3,2c4.5,-2.5 8.5,-9.2 8.5,-14.2c0,-5.4 -4,-11.7 -9,-14.3c-6,-3 -14.1,-3 -19.4,0.1Z" />
    </g>
</svg>
